X: 13563
T: Fly In The Marmalade, The
R: jig
M: 6/8
K: Dmixolydian
|:aaa agf|gfe dde|fff ded|fdB A2A|
G2G cAG|ecG fcG|gfe d2d|f2f efd:|
|:bbb ebg|fff dfd|eee def|gfd A2A|GGG cAG|
[1 ecG fcG|gfe ddd|f2f efd:|
[2 ecG ffb|bag agf|gfe fef||

